icons/svgs/road-outline.svg

<svg width="24" height="24" viewBox="0 0 24 24" fill="none" xmlns="http://www.w3.org/2000/svg">
<path d="M8.4764 3.25H16.4842C17.6561 3.25 18.7108 3.99219 19.1405 5.125L23.3983 17C24.0623 18.8359 22.6952 20.75 20.742 20.75H4.21859C2.26546 20.75 0.898276 18.8359 1.56234 17L5.85921 5.125C6.24984 3.99219 7.30453 3.25 8.4764 3.25ZM7.61703 5.75L3.32015 17.625C3.12484 18.25 3.55453 18.875 4.21859 18.875H11.5623V17.9375C11.5623 17.4297 11.953 17 12.4998 17C13.0077 17 13.4373 17.4297 13.4373 17.9375V18.875H20.742C21.4061 18.875 21.8358 18.25 21.6405 17.625L17.3436 5.75C17.2264 5.39844 16.8748 5.125 16.4842 5.125H13.4373V6.0625C13.4373 6.60938 13.0077 7 12.4998 7C11.953 7 11.5623 6.60938 11.5623 6.0625V5.125H8.4764C8.08578 5.125 7.73421 5.39844 7.61703 5.75ZM13.4373 10.4375V13.5625C13.4373 14.1094 13.0077 14.5 12.4998 14.5C11.953 14.5 11.5623 14.1094 11.5623 13.5625V10.4375C11.5623 9.92969 11.953 9.5 12.4998 9.5C13.0077 9.5 13.4373 9.92969 13.4373 10.4375Z" fill="black"/>
</svg>

<svg xmlns="http://www.w3.org/2000/svg" width="24" height="24" fill="currentColor" class="icon-road-outline" viewBox="0 0 24 24">
  <mask id="a" width="23" height="18" x="1" y="3" maskUnits="userSpaceOnUse" style="mask-type:alpha">
    <path d="M8.476 3.25h8.008c1.172 0 2.227.742 2.656 1.875L23.399 17c.664 1.836-.703 3.75-2.656 3.75H4.219c-1.954 0-3.32-1.914-2.657-3.75L5.86 5.125A2.77 2.77 0 0 1 8.476 3.25m-.859 2.5L3.32 17.625c-.195.625.235 1.25.899 1.25h7.343v-.937c0-.508.391-.938.938-.938a.95.95 0 0 1 .937.938v.937h7.305c.664 0 1.094-.625.898-1.25L17.345 5.75a.93.93 0 0 0-.86-.625h-3.047v.938c0 .546-.43.937-.937.937-.547 0-.938-.39-.938-.937v-.938H8.476a.93.93 0 0 0-.859.625m5.82 4.688v3.124c0 .547-.43.938-.937.938-.547 0-.938-.39-.938-.937v-3.126c0-.507.391-.937.938-.937a.95.95 0 0 1 .937.938"/>
  </mask>
  <g mask="url(#a)">
    <path d="M0 0h24v24H0z"/>
  </g>
</svg>
